src/images/camera.svg

<svg width="34" height="31" viewBox="0 0 34 31" fill="none" xmlns="http://www.w3.org/2000/svg">
<path d="M3.4 3.44444H8.5L11.9 0H22.1L25.5 3.44444H30.6C31.5017 3.44444 32.3665 3.80734 33.0042 4.4533C33.6418 5.09926 34 5.97537 34 6.88889V27.5556C34 28.4691 33.6418 29.3452 33.0042 29.9911C32.3665 30.6371 31.5017 31 30.6 31H3.4C2.49826 31 1.63346 30.6371 0.995837 29.9911C0.358213 29.3452 0 28.4691 0 27.5556V6.88889C0 5.97537 0.358213 5.09926 0.995837 4.4533C1.63346 3.80734 2.49826 3.44444 3.4 3.44444ZM17 8.61111C14.7457 8.61111 12.5837 9.51835 10.9896 11.1332C9.39553 12.7481 8.5 14.9384 8.5 17.2222C8.5 19.506 9.39553 21.6963 10.9896 23.3112C12.5837 24.9261 14.7457 25.8333 17 25.8333C19.2543 25.8333 21.4163 24.9261 23.0104 23.3112C24.6045 21.6963 25.5 19.506 25.5 17.2222C25.5 14.9384 24.6045 12.7481 23.0104 11.1332C21.4163 9.51835 19.2543 8.61111 17 8.61111ZM17 12.0556C18.3526 12.0556 19.6498 12.5999 20.6062 13.5688C21.5627 14.5378 22.1 15.8519 22.1 17.2222C22.1 18.5925 21.5627 19.9067 20.6062 20.8756C19.6498 21.8445 18.3526 22.3889 17 22.3889C15.6474 22.3889 14.3502 21.8445 13.3938 20.8756C12.4373 19.9067 11.9 18.5925 11.9 17.2222C11.9 15.8519 12.4373 14.5378 13.3938 13.5688C14.3502 12.5999 15.6474 12.0556 17 12.0556Z" fill="white"/>
</svg>

<svg xmlns="http://www.w3.org/2000/svg" width="34" height="31" fill="none"><path fill="#fff" d="M3.4 3.4h5.1L11.9 0h10.2l3.4 3.4h5.1c.9 0 1.8.4 2.4 1 .6.7 1 1.6 1 2.5v20.7c0 .9-.4 1.7-1 2.4-.6.6-1.5 1-2.4 1H3.4c-.9 0-1.8-.4-2.4-1-.6-.7-1-1.5-1-2.4V6.9C0 5.9.4 5 1 4.5c.6-.7 1.5-1 2.4-1zM17 8.6c-2.3 0-4.4 1-6 2.5a8.7 8.7 0 000 12.2 8.4 8.4 0 0012 0 8.7 8.7 0 000-12.2 8.4 8.4 0 00-6-2.5zm0 3.5a5 5 0 013.6 1.5 5.2 5.2 0 010 7.3 5 5 0 01-7.2 0 5.2 5.2 0 010-7.3A5 5 0 0117 12z"/></svg>
